X:997
T:Reel 997
M:4/4
K:Gmaj
L:1/8
B>G (3GGG dcBG|B>G (3GGG g2ga|bggf gdec|BAAB cedc|BGGB dGGA|Bddf g2fg|abc'a  (3bc'd' bg|agfd ecdg| (3ggg gb d'egb|d'e'd'b c'bac'| (3bab gb  (3aba fa|gedB BAAB|gbgb gbe'b| (3bc'd' bg afga| (3fed af gfeg| (3abc' bg afde|
